X: 602
T: Margaret's Waltz
R: Waltz
M: 3/4
L: 1/8
K: A
c2|"A"E3 F AB|"A/C#"c4 c2|"D"BA F2 A2|"E"B4 c2|"A"E3 F AB|"A/C#"c3 de2|"D"c4 "E"(3BcB|"A"A4:|
cd|"A"e3 fg2|"D"a4 a2|"Bm"fe d2 f2|"E"e3 dcB|"A"A3 B cd|"A/C#"e4 c2|"D"fe d2 c2|"E"B4 cd|
"A"e3 fg2|"D"a2 g2 f2|"A/C#"e2 d2 c2|"D"B4 c2|"A"E3 FAB|"A/C#"c3 de2|"D"c4 "E"(3BcB|"A"A4||

%%newpage
%%textfont * 14
%%begintext justify
%%32 Bar Waltzes
%%endtext
